X:111
T:Loons On The Lake
R:jig
C:Bruce Osborne - Oct. 2002
Z:abc by bosborne@kos.net
M:6/8
L:1/8
K:Gmaj
D|G3 GFG|GBd dBG|FGA AFD|GFG GDB,|\
G3 GFG|GBd dBG|FGA AFD|1 GBA G2:|2GBA GBc||\
dBd ece|dBG GFG|AFD DEF|GBe def|\
gfg ece|dBG GFG|AFD DEF|GBA GBc|\
dBd ece|dBG GFG|AFD DEF|GBe def|\
gfg ece|dBG GFG|AFD DEF|GBA G2||
